X:224
T: doonagore
M: 4/4
L: 1/8
R: reel
K: Gmaj
DG G2 FGAG | BG G2 ABcA | d2 de fdef | dcAF GFEF |
DG G2 FGAG | BG G2 ABcA | d^cde fdef |1 dcAF G2 GF :|2 dcAF G4 ||
gage fd d2 | fdge fd d2 | gage fdde | defd g2 gf |
gbag fddc | BG G2 ABcA | d2 cA BG G2 | BdcA G4 :|
